icon-svg/postnl.svg

<svg xmlns="http://www.w3.org/2000/svg" fill="#44739e" viewBox="0 0 24 24"><path d="M12.384 12.218a1.62 1.62 0 0 0-.553-.192l-.19-.043c-.234-.053-.419-.094-.419-.245 0-.132.127-.217.322-.217a2.85 2.85 0 0 1 .964.19.035.035 0 0 0 .046-.03v-.542a.091.091 0 0 0-.065-.086 3.2 3.2 0 0 0-.85-.151 1.48 1.48 0 0 0-.882.238.777.777 0 0 0-.326.651c0 .61.5.725.973.837.073.017.061.015.089.02.216.048.439.1.439.275a.186.186 0 0 1-.06.138.44.44 0 0 1-.331.086 4.76 4.76 0 0 1-1.042-.2h-.011a.033.033 0 0 0-.034.032v.544a.092.092 0 0 0 .061.086 3.58 3.58 0 0 0 .967.165c.818 0 1.238-.321 1.238-.9a.722.722 0 0 0-.336-.656m2.244.848a1.84 1.84 0 0 1-.323.071c-.247 0-.394-.115-.394-.505v-1.015a.027.027 0 0 1 .026-.027h.663a.027.027 0 0 0 .027-.027v-.523a.088.088 0 0 0-.087-.086h-.605a.027.027 0 0 1-.026-.027v-.719c0-.022-.01-.029-.033-.029a2.3 2.3 0 0 0-.6.408.617.617 0 0 0-.158.411v1.766c0 .766.443 1.005.919 1.005a1.25 1.25 0 0 0 .567-.1.084.084 0 0 0 .045-.076v-.5a.027.027 0 0 0-.021-.027M10.2 7.907a4.4 4.4 0 0 0-.259-.087c-.1-.032-.2-.055-.286-.075h-.01a.21.21 0 0 0-.062-.009.184.184 0 0 0-.172.116 4.3 4.3 0 0 0-.233.65.078.078 0 0 0 .008.07.077.077 0 0 0 .064.025h.26a.083.083 0 0 0 .09-.059 2.3 2.3 0 0 1 .127-.348s0-.009.021-.009a.07.07 0 0 1 .019 0l.132.044a.058.058 0 0 1 .03.03.092.092 0 0 1 0 .067s-.267.747-.346 1a.1.1 0 0 0 0 .09.088.088 0 0 0 .075.031h.322a.1.1 0 0 0 .1-.064c.011-.032.028-.078.048-.133l.007-.021c.1-.27.244-.679.275-.795.061-.2.075-.416-.21-.523m9.5.252a23.62 23.62 0 0 0-4.445-3.207C12.675 3.53 8.8 2 6.377 2a3.25 3.25 0 0 0-1.572.326c-.93.513-1.7 1.875-2.234 3.941a24.02 24.02 0 0 0-.687 5.721 23.87 23.87 0 0 0 .683 5.793c.42 1.613 1.13 3.258 2.238 3.869a3.44 3.44 0 0 0 1.659.35c2.5 0 6.3-1.6 8.79-2.977a24.26 24.26 0 0 0 4.409-3.136c1.512-1.386 2.451-2.743 2.453-3.9-.002-1.228-1.175-2.67-2.416-3.828m-4.835 10.2c-3.93 2.167-8.1 3.413-9.637 2.569-1.691-.933-2.537-5.389-2.538-8.94 0-3.522.9-8.035 2.538-8.939 1.437-.793 5.8.454 9.637 2.569 3.325 1.833 6.445 4.709 6.448 6.37-.005 1.741-3.073 4.512-6.45 6.37zM8.735 10.9A1.323 1.323 0 0 0 7.3 12.339a1.333 1.333 0 0 0 1.437 1.436 1.333 1.333 0 0 0 1.436-1.436A1.323 1.323 0 0 0 8.735 10.9m0 2.19c-.356 0-.622-.271-.622-.753 0-.525.266-.755.622-.755s.622.23.622.755c0 .484-.268.755-.622.755zm8.058-2.176a1.62 1.62 0 0 0-.545.111 1.38 1.38 0 0 0-.293.167l-.023.017a.022.022 0 0 1-.013 0 .023.023 0 0 1-.023-.023v-.208a.018.018 0 0 0-.017-.017H15.2a.079.079 0 0 0-.079.079v2.66a.018.018 0 0 0 .017.017h.736a.018.018 0 0 0 .026-.017v-1.876a.05.05 0 0 1 .02-.036c.035-.021.132-.081.257-.153a.754.754 0 0 1 .355-.11c.292 0 .417.156.417.523V13.7a.016.016 0 0 0 .016.016h.735a.016.016 0 0 0 .017-.017v-1.787c-.005-.653-.323-.998-.924-.998m1.533-1.301c-.02 0-.023 0-.023.019V13.7a.016.016 0 0 0 .016.016h.734a.017.017 0 0 0 .017-.016v-3.278a.605.605 0 0 0-.155-.405 2.34 2.34 0 0 0-.589-.404M7.4 9.838v.3c0 .093.039.138.122.138h2.429c.082 0 .121-.045.121-.138v-.3a.154.154 0 0 0-.153-.152H7.554a.154.154 0 0 0-.154.152m1.168-.399H8.9a.091.091 0 0 0 .09-.09v-.005c0-.01.007-.581.02-1.567v-.019a.12.12 0 0 0-.031-.085.08.08 0 0 0-.061-.024c-.063 0-.125-.006-.185-.006h-.187a.084.084 0 0 0-.06.025.132.132 0 0 0-.032.084c0 .128.011.8.016 1.227 0 .207.005.357.005.361a.094.094 0 0 0 .093.099M8.671 7.4a.1.1 0 0 0 .063.025A.1.1 0 0 0 8.8 7.4a1.78 1.78 0 0 0 .3-.313.077.077 0 0 0 0-.107 1.74 1.74 0 0 0-.323-.318.075.075 0 0 0-.045-.016.08.08 0 0 0-.043.014 1.76 1.76 0 0 0-.328.322.075.075 0 0 0 0 .1 1.75 1.75 0 0 0 .31.318m-3.233 3.555H4.39a.088.088 0 0 0-.089.088v3.215a.618.618 0 0 0 .158.411 2.3 2.3 0 0 0 .6.407c.024 0 .033-.007.033-.028v-1.3a.027.027 0 0 1 .027-.027h.306C6.4 13.725 7 13.171 7 12.371a1.39 1.39 0 0 0-1.562-1.416m0 2.05h-.324a.027.027 0 0 1-.027-.027V11.7a.027.027 0 0 1 .027-.028h.308c.581 0 .8.319.8.659 0 .193-.093.674-.785.674zm1.946-3.63a.1.1 0 0 0 .1.063h.322a.084.084 0 0 0 .074-.03.1.1 0 0 0 .006-.09c-.079-.244-.344-.988-.347-.995a.092.092 0 0 1 0-.067.05.05 0 0 1 .031-.029l.132-.044h.018c.013 0 .019.005.021.009a2.3 2.3 0 0 1 .127.348.08.08 0 0 0 .088.057h.261A.067.067 0 0 0 8.3 8.5a4.4 4.4 0 0 0-.233-.651.187.187 0 0 0-.172-.116.22.22 0 0 0-.057.007h-.014c-.086.02-.183.043-.285.074-.079.025-.166.054-.259.088-.289.107-.274.323-.221.52.03.112.166.495.282.815.015.063.031.106.043.138"/></svg>

<?xml version="1.0" encoding="UTF-8"?>
<svg width="24px" fill="#44739e" height="24px" viewBox="0 0 24 24" version="1.1" xmlns="http://www.w3.org/2000/svg" xmlns:xlink="http://www.w3.org/1999/xlink">
            <path d="m 12.384,12.218 a 1.617,1.617 0 0 0 -0.553,-0.192 l -0.19,-0.043 c -0.234,-0.053 -0.419,-0.094 -0.419,-0.245 0,-0.132 0.127,-0.217 0.322,-0.217 a 2.845,2.845 0 0 1 0.964,0.19 0.035,0.035 0 0 0 0.046,-0.03 v -0.542 a 0.091,0.091 0 0 0 -0.065,-0.086 3.19,3.19 0 0 0 -0.85,-0.151 1.481,1.481 0 0 0 -0.882,0.238 0.777,0.777 0 0 0 -0.326,0.651 c 0,0.61 0.5,0.725 0.973,0.837 0.073,0.017 0.061,0.015 0.089,0.02 0.216,0.048 0.439,0.1 0.439,0.275 a 0.186,0.186 0 0 1 -0.06,0.138 0.44,0.44 0 0 1 -0.331,0.086 4.764,4.764 0 0 1 -1.042,-0.2 h -0.011 a 0.033,0.033 0 0 0 -0.034,0.032 v 0.544 a 0.092,0.092 0 0 0 0.061,0.086 3.582,3.582 0 0 0 0.967,0.165 c 0.818,0 1.238,-0.321 1.238,-0.9 a 0.722,0.722 0 0 0 -0.336,-0.656 z m 2.244,0.848 a 1.838,1.838 0 0 1 -0.323,0.071 c -0.247,0 -0.394,-0.115 -0.394,-0.505 V 11.617 A 0.027,0.027 0 0 1 13.937,11.59 H 14.6 a 0.027,0.027 0 0 0 0.027,-0.027 V 11.04 A 0.088,0.088 0 0 0 14.54,10.954 h -0.605 a 0.027,0.027 0 0 1 -0.026,-0.027 v -0.719 c 0,-0.022 -0.01,-0.029 -0.033,-0.029 a 2.305,2.305 0 0 0 -0.6,0.408 0.617,0.617 0 0 0 -0.158,0.411 v 1.766 c 0,0.766 0.443,1.005 0.919,1.005 a 1.25,1.25 0 0 0 0.567,-0.1 0.084,0.084 0 0 0 0.045,-0.076 v -0.5 A 0.027,0.027 0 0 0 14.628,13.066 Z M 10.2,7.907 C 10.108,7.873 10.021,7.844 9.941,7.82 9.841,7.788 9.741,7.765 9.655,7.745 H 9.645 A 0.211,0.211 0 0 0 9.583,7.736 0.184,0.184 0 0 0 9.411,7.852 4.291,4.291 0 0 0 9.178,8.502 0.078,0.078 0 0 0 9.186,8.572 0.077,0.077 0 0 0 9.25,8.597 H 9.51 A 0.083,0.083 0 0 0 9.6,8.538 2.305,2.305 0 0 1 9.727,8.19 c 0,0 0,-0.009 0.021,-0.009 a 0.065,0.065 0 0 1 0.019,0 l 0.132,0.044 a 0.058,0.058 0 0 1 0.03,0.03 0.092,0.092 0 0 1 0,0.067 c 0,0 -0.267,0.747 -0.346,1 a 0.1,0.1 0 0 0 0,0.09 0.088,0.088 0 0 0 0.075,0.031 H 9.98 a 0.1,0.1 0 0 0 0.1,-0.064 c 0.011,-0.032 0.028,-0.078 0.048,-0.133 l 0.007,-0.021 c 0.1,-0.27 0.244,-0.679 0.275,-0.795 0.061,-0.2 0.075,-0.416 -0.21,-0.523 z m 9.5,0.252 A 23.616,23.616 0 0 0 15.255,4.952 C 12.675,3.53 8.8,2 6.377,2 A 3.25,3.25 0 0 0 4.805,2.326 c -0.93,0.513 -1.7,1.875 -2.234,3.941 a 24.022,24.022 0 0 0 -0.687,5.721 23.869,23.869 0 0 0 0.683,5.793 c 0.42,1.613 1.13,3.258 2.238,3.869 A 3.442,3.442 0 0 0 6.464,22 c 2.5,0 6.3,-1.6 8.79,-2.977 a 24.255,24.255 0 0 0 4.409,-3.136 c 1.512,-1.386 2.451,-2.743 2.453,-3.9 C 22.114,10.759 20.941,9.317 19.7,8.159 Z m -4.835,10.2 c -3.93,2.167 -8.1,3.413 -9.637,2.569 -1.691,-0.933 -2.537,-5.389 -2.538,-8.94 0,-3.522 0.9,-8.035 2.538,-8.939 1.437,-0.793 5.8,0.454 9.637,2.569 3.325,1.833 6.445,4.709 6.448,6.37 -0.005,1.741 -3.073,4.512 -6.45,6.37 z M 8.735,10.9 A 1.323,1.323 0 0 0 7.3,12.339 1.333,1.333 0 0 0 8.737,13.775 1.333,1.333 0 0 0 10.173,12.339 1.323,1.323 0 0 0 8.735,10.9 Z m 0,2.19 c -0.356,0 -0.622,-0.271 -0.622,-0.753 0,-0.525 0.266,-0.755 0.622,-0.755 0.356,0 0.622,0.23 0.622,0.755 0,0.484 -0.268,0.755 -0.622,0.755 z m 8.058,-2.176 a 1.615,1.615 0 0 0 -0.545,0.111 1.38,1.38 0 0 0 -0.293,0.167 l -0.023,0.017 a 0.022,0.022 0 0 1 -0.013,0 0.023,0.023 0 0 1 -0.023,-0.023 V 10.978 A 0.018,0.018 0 0 0 15.879,10.961 H 15.2 a 0.079,0.079 0 0 0 -0.079,0.079 v 2.66 a 0.018,0.018 0 0 0 0.017,0.017 h 0.736 A 0.018,0.018 0 0 0 15.9,13.7 v -1.876 a 0.049,0.049 0 0 1 0.02,-0.036 c 0.035,-0.021 0.132,-0.081 0.257,-0.153 a 0.754,0.754 0 0 1 0.355,-0.11 c 0.292,0 0.417,0.156 0.417,0.523 V 13.7 a 0.016,0.016 0 0 0 0.016,0.016 H 17.7 a 0.016,0.016 0 0 0 0.017,-0.017 v -1.787 c -0.005,-0.653 -0.323,-0.998 -0.924,-0.998 z m 1.533,-1.301 c -0.02,0 -0.023,0 -0.023,0.019 V 13.7 a 0.016,0.016 0 0 0 0.016,0.016 h 0.734 A 0.017,0.017 0 0 0 19.07,13.7 V 10.422 A 0.605,0.605 0 0 0 18.915,10.017 2.34,2.34 0 0 0 18.326,9.613 Z M 7.4,9.838 v 0.3 c 0,0.093 0.039,0.138 0.122,0.138 h 2.429 c 0.082,0 0.121,-0.045 0.121,-0.138 v -0.3 A 0.154,0.154 0 0 0 9.919,9.686 H 7.554 A 0.154,0.154 0 0 0 7.4,9.838 Z M 8.568,9.439 H 8.9 A 0.091,0.091 0 0 0 8.99,9.349 V 9.344 c 0,-0.01 0.007,-0.581 0.02,-1.567 V 7.758 A 0.121,0.121 0 0 0 8.979,7.673 0.08,0.08 0 0 0 8.918,7.649 c -0.063,0 -0.125,-0.006 -0.185,-0.006 -0.06,0 -0.122,0 -0.187,0 A 0.084,0.084 0 0 0 8.486,7.668 0.132,0.132 0 0 0 8.454,7.752 c 0,0.128 0.011,0.8 0.016,1.227 0,0.207 0.005,0.357 0.005,0.361 A 0.094,0.094 0 0 0 8.568,9.439 Z M 8.671,7.4 A 0.1,0.1 0 0 0 8.734,7.425 0.1,0.1 0 0 0 8.8,7.4 1.784,1.784 0 0 0 9.1,7.087 0.077,0.077 0 0 0 9.1,6.98 1.737,1.737 0 0 0 8.777,6.662 0.075,0.075 0 0 0 8.732,6.646 0.078,0.078 0 0 0 8.689,6.66 1.755,1.755 0 0 0 8.361,6.982 a 0.075,0.075 0 0 0 0,0.1 1.75,1.75 0 0 0 0.31,0.318 z M 5.438,10.955 H 4.39 a 0.088,0.088 0 0 0 -0.089,0.088 v 3.215 a 0.618,0.618 0 0 0 0.158,0.411 2.3,2.3 0 0 0 0.6,0.407 c 0.024,0 0.033,-0.007 0.033,-0.028 v -1.3 A 0.027,0.027 0 0 1 5.119,13.721 H 5.425 C 6.4,13.725 7,13.171 7,12.371 A 1.39,1.39 0 0 0 5.438,10.955 Z m 0,2.05 H 5.114 A 0.027,0.027 0 0 1 5.087,12.978 V 11.7 a 0.027,0.027 0 0 1 0.027,-0.028 h 0.308 c 0.581,0 0.8,0.319 0.8,0.659 0,0.193 -0.093,0.674 -0.785,0.674 z m 1.946,-3.63 a 0.1,0.1 0 0 0 0.1,0.063 H 7.806 A 0.084,0.084 0 0 0 7.88,9.408 0.1,0.1 0 0 0 7.886,9.318 C 7.807,9.074 7.542,8.33 7.539,8.323 a 0.092,0.092 0 0 1 0,-0.067 A 0.05,0.05 0 0 1 7.57,8.227 L 7.702,8.183 H 7.72 c 0.013,0 0.019,0.005 0.021,0.009 A 2.328,2.328 0 0 1 7.868,8.54 0.08,0.08 0 0 0 7.956,8.597 H 8.217 A 0.067,0.067 0 0 0 8.3,8.5 4.406,4.406 0 0 0 8.067,7.849 0.187,0.187 0 0 0 7.895,7.733 0.217,0.217 0 0 0 7.838,7.74 H 7.824 C 7.738,7.76 7.641,7.783 7.539,7.814 7.46,7.839 7.373,7.868 7.28,7.902 6.991,8.009 7.006,8.225 7.059,8.422 7.089,8.534 7.225,8.917 7.341,9.237 7.356,9.3 7.372,9.343 7.384,9.375 Z"/>

</svg>
